X:879
T:Reel 879
M:4/4
K:Gmaj
L:1/8
dc|BcdB GABG|ADDE F2dc|B>d (3GGG dcBG|ADDE =F2Ac|B>G (3GGG BGdG|DEGB cBAG|Bdef gage|dcAB G2| (3def |gfge fede|fBaB gedc|Bcde =fefc|BGAF G2 (3def |gfge fgaf|gfde =fdcA|BcBA GBdg|fdcA G2|
